assets/images/order-svg3.svg

<svg width="70" height="70" viewBox="0 0 70 70" fill="none" xmlns="http://www.w3.org/2000/svg">
<circle cx="35" cy="35" r="35" fill="#323750"/>
<path d="M32.2773 39.8783L43.2837 28.8731L43.284 28.8728C43.8546 28.3043 44.7781 28.3059 45.3467 28.8765C45.9153 29.447 45.9137 30.3703 45.3435 30.9389L32.2773 39.8783ZM32.2773 39.8783L27.7223 35.3233C27.7223 35.3233 27.7223 35.3233 27.7223 35.3233C27.1518 34.7528 26.227 34.7529 25.6565 35.3233C25.0861 35.8937 25.0861 36.8186 25.6565 37.389L25.6566 37.389L30.3896 42.1209L30.3897 42.121L30.3903 42.1216C30.3903 42.1216 30.3904 42.1216 30.3904 42.1216C31.432 43.1627 33.1204 43.1624 34.1615 42.1208C34.1615 42.1208 34.1616 42.1208 34.1616 42.1208L45.3432 30.9392L32.2773 39.8783ZM21.25 27.0418C21.2539 23.8447 23.8447 21.2539 27.0418 21.25H43.9582C47.1553 21.2539 49.7462 23.8448 49.75 27.042V43.958C49.7462 47.1552 47.1552 49.7462 43.9581 49.75H27.042C23.8448 49.7462 21.2539 47.1553 21.25 43.9582V27.0418Z" fill="white" stroke="#323750" stroke-width="0.5"/>
</svg>

<svg width="70" height="70" fill="none" xmlns="http://www.w3.org/2000/svg"><circle cx="35" cy="35" r="35" fill="#323750"/><path d="m32.277 39.878 11.007-11.005a1.459 1.459 0 0 1 2.06 2.066l-13.067 8.94Zm0 0-4.555-4.555a1.46 1.46 0 0 0-2.066 2.066l4.734 4.732a2.667 2.667 0 0 0 3.771 0l11.182-11.182-13.066 8.94ZM21.25 27.042a5.799 5.799 0 0 1 5.792-5.792h16.916a5.799 5.799 0 0 1 5.792 5.792v16.916a5.799 5.799 0 0 1-5.792 5.792H27.042a5.799 5.799 0 0 1-5.792-5.792V27.042Z" fill="#fff" stroke="#323750" stroke-width=".5"/></svg>
